package/converter/svg/solid/circle-n.svg

<svg xmlns="http://www.w3.org/2000/svg" viewBox="0 0 512 512"><!-- Font Awesome Pro 6.0.0-alpha2 by @fontawesome - https://fontawesome.com License - https://fontawesome.com/license (Commercial License) --><path d="M256 16C123.451 16 16 123.451 16 256S123.451 496 256 496S496 388.549 496 256S388.549 16 256 16ZM352 360C352 370.5 345.172 379.781 335.156 382.906C332.797 383.641 330.391 384 328 384C320.281 384 312.828 380.266 308.266 373.656L208 228.828V360C208 373.25 197.25 384 184 384S160 373.25 160 360V152C160 141.5 166.828 132.219 176.844 129.094C186.859 126.031 197.781 129.703 203.734 138.344L304 283.172V152C304 138.75 314.75 128 328 128S352 138.75 352 152V360Z"/></svg>

<svg xmlns="http://www.w3.org/2000/svg" viewBox="0 0 512 512"><!--! Font Awesome Pro 6.6.0 by @fontawesome - https://fontawesome.com License - https://fontawesome.com/license (Commercial License) Copyright 2024 Fonticons, Inc. --><path d="M256 512A256 256 0 1 0 256 0a256 256 0 1 0 0 512zM203.7 138.3L304 283.2 304 152c0-13.3 10.7-24 24-24s24 10.7 24 24l0 208c0 10.5-6.8 19.8-16.8 22.9s-20.9-.6-26.9-9.2L208 228.8 208 360c0 13.3-10.7 24-24 24s-24-10.7-24-24l0-208c0-10.5 6.8-19.8 16.8-22.9s20.9 .6 26.9 9.2z"/></svg>
